X:1
T: The Greenwood Lasses
C:
R:Reel
Q: 232
K:G
M:4/4
L:1/8
|:D|DG GA BG AG|FD DE FD DC|DG GA BG AG|Ad cA AG GD|
DG GA BG AG|FD DE FD DC|DG GA BG AG|Ad cA AG G2|
Ad ((3ddd) ed cA|AB cB AG FD|Ad ((3ddd) ed cA|AB cB AG GG|
Ad ((3ddd) ed cA|AB cB AG FD|dB cA BG AG|Ad cA AGG:|
